X: 18993
T: Innes Russell Of Perth
R: strathspey
M: 4/4
K: Gmajor
(3D/E/F/|G2 D>G B,>GG,>G|D>EG>A B<GG<B|A2 E>A c>BA>G|F<DF<A c>AF<A|
G2 D>G B,>GG,>G|D>EG>A B<GG>B|c>Af>e d<gD>G|(3FGA (3cBA B<G G||
(3A/B/c/|d2 B>d g>fe>d|B<GB<d g>fe<d|c2 A>c a>gf>e|c<Aa>g f<dd>c|
B2 G>B g>fe>d|B<GB>d g>dB<d|c>Af>e d<gD>g|(3fed (3cBA B<G G||

